X: 15919
T: Grande Nuit In Port Du Peche
R: reel
M: 4/4
K: Bminor
B2 fB dfff|BgfB dfff|Bgfd fecd|efff edcA:|
B2 dB de e/e/e|Bfec dcBA|B/B/B dB de e/e/e|Bfec d2 c/B/A|
B/B/B dB de e/e/e|Bfec dcBA|B/B/B dB de e/e/e|fedc B4||

